icons/airpods-dot.svg

<svg width="24" height="24" viewBox="0 0 24 24" fill="none" xmlns="http://www.w3.org/2000/svg">
<path fill-rule="evenodd" clip-rule="evenodd" d="M3.29993 6.84998C3.29993 4.23576 5.43571 2.09998 8.04993 2.09998C10.6641 2.09998 12.7999 4.23576 12.7999 6.84998C12.7999 8.75916 11.6144 10.4155 10.0642 11.1309L9.43563 9.76901C10.4855 9.28447 11.2999 8.14079 11.2999 6.84998C11.2999 5.06419 9.83571 3.59998 8.04993 3.59998C6.26414 3.59998 4.79993 5.06419 4.79993 6.84998C4.79993 7.57236 5.03787 8.22274 5.46023 8.81405L4.23963 9.6859C3.66199 8.87721 3.29993 7.92759 3.29993 6.84998Z" fill="black"/>
<path fill-rule="evenodd" clip-rule="evenodd" d="M4.50968 7.599L5.36433 8.81993C5.91356 9.60454 6.87588 10.1 7.94991 10.1H8.00321L8.05597 10.1076C8.54053 10.1768 8.96748 10.0448 9.36403 9.80691L10.628 9.04851L9.99623 16.1247C9.85726 17.5143 8.62892 18.6 7.24991 18.6C5.90241 18.6 4.64355 17.6437 4.50332 16.1215L3.89991 10.0874V10.05C3.89991 10.044 3.89991 10.0379 3.8999 10.0319C3.89985 9.73095 3.89979 9.42866 4.03839 9.01286L4.50968 7.599ZM5.49197 10.9333L5.99686 15.9821C6.05829 16.6578 6.59846 17.1 7.24991 17.1C7.86972 17.1 8.44043 16.5877 8.50328 15.9789L8.89665 11.5731C8.58656 11.6298 8.25305 11.6447 7.89775 11.5998C7.03566 11.5907 6.20364 11.3568 5.49197 10.9333Z" fill="black"/>
<path fill-rule="evenodd" clip-rule="evenodd" d="M13.2 12.85C13.2 10.7358 14.8357 9.09998 16.95 9.09998C19.0642 9.09998 20.7 10.7358 20.7 12.85C20.7 13.7034 20.4521 14.4729 19.9356 15.1185L18.7643 14.1815C19.0478 13.8271 19.2 13.3966 19.2 12.85C19.2 11.5642 18.2357 10.6 16.95 10.6C15.6642 10.6 14.7 11.5642 14.7 12.85C14.7 13.7407 15.2161 14.4945 15.9854 14.8792L15.3145 16.2208C14.0838 15.6054 13.2 14.3593 13.2 12.85Z" fill="black"/>
<path fill-rule="evenodd" clip-rule="evenodd" d="M19.4637 13.2004L20.0208 14.3146C20.2015 14.6762 20.2005 15.0321 20.2 15.2219C20.2 15.2317 20.1999 15.2411 20.1999 15.25V15.2833L19.7958 19.8298L19.7941 19.843C19.6536 20.9673 18.7775 21.9 17.5499 21.9C16.3224 21.9 15.4463 20.9673 15.3057 19.843L15.3044 19.8321L14.775 14.274L15.9854 14.8792C16.2695 15.0213 16.6525 15.1 16.9499 15.1C17.7073 15.1 18.3801 14.7174 18.7396 14.2141L19.4637 13.2004ZM18.6113 16.2142C18.1108 16.4591 17.5436 16.6 16.9499 16.6C16.8077 16.6 16.6562 16.5903 16.5005 16.5705L16.7954 19.6666C16.858 20.1363 17.18 20.4 17.5499 20.4C17.9193 20.4 18.2409 20.1371 18.3042 19.6687L18.6113 16.2142Z" fill="black"/>
<path d="M7.94995 8.04993C8.50224 8.04993 8.94995 7.60221 8.94995 7.04993C8.94995 6.49764 8.50224 6.04993 7.94995 6.04993C7.39767 6.04993 6.94995 6.49764 6.94995 7.04993C6.94995 7.60221 7.39767 8.04993 7.94995 8.04993Z" fill="black"/>
</svg>

<svg xmlns="http://www.w3.org/2000/svg" fill="none" viewBox="0 0 24 24">
  <path fill="#000" fill-rule="evenodd" d="M3.3 6.85A4.762 4.762 0 0 1 8.05 2.1a4.762 4.762 0 0 1 4.75 4.75c0 1.91-1.186 3.566-2.736 4.28l-.628-1.36c1.05-.485 1.864-1.628 1.864-2.919A3.262 3.262 0 0 0 8.05 3.6 3.262 3.262 0 0 0 4.8 6.85c0 .722.238 1.373.66 1.964l-1.22.872c-.578-.809-.94-1.758-.94-2.836Z" clip-rule="evenodd"/>
  <path fill="#000" fill-rule="evenodd" d="m4.51 7.599.854 1.22c.55.786 1.512 1.281 2.586 1.281h.053l.053.008c.485.069.911-.063 1.308-.301l1.264-.758-.632 7.076C9.857 17.515 8.63 18.6 7.25 18.6c-1.348 0-2.606-.956-2.747-2.479L3.9 10.088v-.056c0-.301 0-.603.138-1.02L4.51 7.6Zm.982 3.334.505 5.05c.061.675.601 1.117 1.253 1.117.62 0 1.19-.512 1.253-1.121l.394-4.406c-.31.057-.644.072-1 .027a4.808 4.808 0 0 1-2.405-.667ZM13.2 12.85c0-2.114 1.636-3.75 3.75-3.75s3.75 1.636 3.75 3.75c0 .853-.248 1.623-.764 2.268l-1.172-.937c.284-.354.436-.784.436-1.331 0-1.286-.964-2.25-2.25-2.25s-2.25.964-2.25 2.25c0 .89.516 1.645 1.285 2.03l-.67 1.34c-1.231-.615-2.115-1.86-2.115-3.37Z" clip-rule="evenodd"/>
  <path fill="#000" fill-rule="evenodd" d="m19.464 13.2.557 1.115c.18.361.18.717.179.907v.061l-.404 4.547-.002.013c-.14 1.124-1.017 2.057-2.244 2.057-1.228 0-2.104-.933-2.244-2.057l-.002-.01-.529-5.559 1.21.605c.285.142.668.221.965.221.757 0 1.43-.383 1.79-.886l.724-1.014Zm-.853 3.014c-.5.245-1.067.386-1.661.386-.142 0-.294-.01-.45-.03l.295 3.097c.063.47.385.733.755.733s.69-.263.754-.731l.307-3.455Z" clip-rule="evenodd"/>
  <path fill="#000" d="M7.95 8.05a1 1 0 1 0 0-2 1 1 0 0 0 0 2Z"/>
</svg>
